TrafficJam2023/images/icons/universe.svg

<svg viewBox="0 0 17 17" fill="none" xmlns="http://www.w3.org/2000/svg">
<path fill-rule="evenodd" clip-rule="evenodd" d="M14.0562 0.319458L13.9183 1.40001C13.8076 2.26772 13.1244 2.95092 12.2567 3.06161L11.4962 3.15864L10.7356 3.06161C9.8679 2.95092 9.1847 2.26772 9.074 1.40001L8.93616 0.319458L8.79831 1.40001C8.68762 2.26772 8.00442 2.95092 7.13671 3.06161L6.37616 3.15864L5.6156 3.06161C4.7479 2.95092 4.0647 2.26772 3.954 1.40001L3.81616 0.319458L3.67831 1.40001C3.56762 2.26772 2.88442 2.95092 2.01671 3.06161L0.936157 3.19946L2.01671 3.3373C2.88442 3.448 3.56762 4.1312 3.67831 4.9989L3.77533 5.75946L3.67831 6.52001C3.56762 7.38772 2.88442 8.07092 2.01671 8.18161L0.936157 8.31946L2.01671 8.4573C2.88442 8.568 3.56762 9.2512 3.67831 10.1189L3.77533 10.8795L3.67831 11.64C3.56762 12.5077 2.88442 13.1909 2.01671 13.3016L0.936157 13.4395L2.01671 13.5773C2.88442 13.688 3.56762 14.3712 3.67831 15.2389L3.81616 16.3195L3.954 15.2389C4.0647 14.3712 4.7479 13.688 5.6156 13.5773L6.37616 13.4803L7.13671 13.5773C8.00442 13.688 8.68762 14.3712 8.79831 15.2389L8.93616 16.3195L9.074 15.2389C9.1847 14.3712 9.8679 13.688 10.7356 13.5773L11.4962 13.4803L12.2567 13.5773C13.1244 13.688 13.8076 14.3712 13.9183 15.2389L14.0562 16.3195L14.194 15.2389C14.3047 14.3712 14.9879 13.688 15.8556 13.5773L16.9362 13.4395L15.8556 13.3016C14.9879 13.1909 14.3047 12.5077 14.194 11.64L14.097 10.8795L14.194 10.1189C14.3047 9.2512 14.9879 8.568 15.8556 8.4573L16.9362 8.31946L15.8556 8.18161C14.9879 8.07092 14.3047 7.38772 14.194 6.52001L14.097 5.75946L14.194 4.9989C14.3047 4.1312 14.9879 3.448 15.8556 3.3373L16.9362 3.19946L15.8556 3.06161C14.9879 2.95092 14.3047 2.26772 14.194 1.40001L14.0562 0.319458ZM6.37616 13.3986L5.6156 13.3016C4.7479 13.1909 4.0647 12.5077 3.954 11.64L3.85698 10.8795L3.954 10.1189C4.0647 9.2512 4.7479 8.568 5.6156 8.4573L6.37616 8.36028L7.13671 8.4573C8.00442 8.568 8.68762 9.2512 8.79831 10.1189L8.89533 10.8795L8.79831 11.64C8.68762 12.5077 8.00442 13.1909 7.13671 13.3016L6.37616 13.3986ZM3.954 4.9989L3.85698 5.75946L3.954 6.52001C4.0647 7.38772 4.7479 8.07092 5.6156 8.18161L6.37616 8.27864L7.13671 8.18161C8.00442 8.07092 8.68762 7.38772 8.79831 6.52001L8.89533 5.75946L8.79831 4.9989C8.68762 4.1312 8.00442 3.448 7.13671 3.3373L6.37616 3.24028L5.6156 3.3373C4.7479 3.448 4.0647 4.1312 3.954 4.9989ZM9.074 10.1189L8.97698 10.8795L9.074 11.64C9.1847 12.5077 9.8679 13.1909 10.7356 13.3016L11.4962 13.3986L12.2567 13.3016C13.1244 13.1909 13.8076 12.5077 13.9183 11.64L14.0153 10.8795L13.9183 10.1189C13.8076 9.2512 13.1244 8.568 12.2567 8.4573L11.4962 8.36028L10.7356 8.4573C9.8679 8.568 9.1847 9.2512 9.074 10.1189ZM11.4962 8.27864L10.7356 8.18161C9.8679 8.07092 9.1847 7.38772 9.074 6.52001L8.97698 5.75946L9.074 4.9989C9.1847 4.1312 9.8679 3.448 10.7356 3.3373L11.4962 3.24028L12.2567 3.3373C13.1244 3.448 13.8076 4.1312 13.9183 4.9989L14.0153 5.75946L13.9183 6.52001C13.8076 7.38772 13.1244 8.07092 12.2567 8.18161L11.4962 8.27864Z" fill="#000210"/>
</svg>

<svg xmlns="http://www.w3.org/2000/svg" fill="none" viewBox="0 0 17 17"><path fill="#000210" fill-rule="evenodd" d="m14.056.32-.138 1.08a1.92 1.92 0 0 1-1.661 1.662l-.76.097-.761-.097A1.92 1.92 0 0 1 9.074 1.4L8.936.32 8.798 1.4a1.92 1.92 0 0 1-1.661 1.662l-.76.097-.761-.097A1.92 1.92 0 0 1 3.954 1.4L3.816.32 3.678 1.4a1.92 1.92 0 0 1-1.661 1.662l-1.08.137 1.08.138A1.92 1.92 0 0 1 3.678 5l.097.76-.097.761a1.92 1.92 0 0 1-1.661 1.662l-1.08.137 1.08.138a1.92 1.92 0 0 1 1.661 1.662l.097.76-.097.761a1.92 1.92 0 0 1-1.661 1.662l-1.08.138 1.08.137a1.92 1.92 0 0 1 1.661 1.662l.138 1.08.138-1.08a1.92 1.92 0 0 1 1.662-1.662l.76-.097.76.097a1.92 1.92 0 0 1 1.662 1.662l.138 1.08.138-1.08a1.92 1.92 0 0 1 1.662-1.662l.76-.097.76.097a1.92 1.92 0 0 1 1.662 1.662l.138 1.08.138-1.08a1.92 1.92 0 0 1 1.662-1.662l1.08-.137-1.08-.138a1.92 1.92 0 0 1-1.662-1.662l-.097-.76.097-.761a1.92 1.92 0 0 1 1.662-1.662l1.08-.138-1.08-.137a1.92 1.92 0 0 1-1.662-1.662l-.097-.76.097-.761a1.92 1.92 0 0 1 1.662-1.662l1.08-.138-1.08-.137A1.92 1.92 0 0 1 14.194 1.4L14.056.32Zm-7.68 13.079-.76-.097a1.92 1.92 0 0 1-1.662-1.662l-.097-.76.097-.761a1.92 1.92 0 0 1 1.662-1.662l.76-.097.76.097a1.92 1.92 0 0 1 1.662 1.662l.097.76-.097.761a1.92 1.92 0 0 1-1.661 1.662l-.76.097Zm-2.422-8.4-.097.76.097.761a1.92 1.92 0 0 0 1.662 1.662l.76.097.76-.097A1.92 1.92 0 0 0 8.799 6.52l.097-.76-.097-.761a1.92 1.92 0 0 0-1.661-1.662l-.76-.097-.761.097A1.92 1.92 0 0 0 3.954 5Zm5.12 5.12-.097.76.097.761a1.92 1.92 0 0 0 1.662 1.662l.76.097.76-.097a1.92 1.92 0 0 0 1.662-1.662l.097-.76-.097-.761a1.92 1.92 0 0 0-1.661-1.662l-.76-.097-.761.097a1.92 1.92 0 0 0-1.662 1.662Zm2.422-1.84-.76-.097A1.92 1.92 0 0 1 9.074 6.52l-.097-.76.097-.761a1.92 1.92 0 0 1 1.662-1.662l.76-.097.76.097A1.92 1.92 0 0 1 13.919 5l.097.76-.097.761a1.92 1.92 0 0 1-1.661 1.662l-.76.097Z" clip-rule="evenodd"/></svg>
